X: 11111
Q: "Slow"
M: 6/8
L: 1/16
K: Gm
(D2G2)A2 B4(AG) | (AB)(cB)(AG) (F2G2).A2 |\
(B2d2).B2 (dc)(BA)(G^F) | D2G2G2 G4 :: GA |\
(d2g2)^f2 Tf3ab2 | !f!d2g2^f2 ~g4ga |\
{ga}.b2.a2.g2 {g}f2e2d2 | (dc)(BA)Hf2 {ga}!p!F2G2A2 |\
(B2d2).B2 (dc)(BA)(G^F) | D2G2G2 G4 :|


